;FLAVOR:Marlin
;TIME:919
;Filament used: 0.449519m
;Layer height: 0.2
;MINX:89
;MINY:89
;MINZ:0.2
;MAXX:131
;MAXY:131
;MAXZ:12.8
;ARCWELDERPROCESSED
; Postprocessed by [ArcWelder](https://github.com/FormerLurker/ArcWelderLib)
; Copyright(C) 2020 - Brad Hochgesang
; resolution=0.05mm
; path_tolerance=5%
; max_radius=1000000.00mm
; default_xyz_precision=3
; default_e_precision=5

;Generated with Cura_SteamEngine 4.12.1
M82 ;absolute extrusion mode
; Script based on an original created by tjjfvi (https://github.com/tjjfvi)
; An up-to-date version of the tjjfvi's original script can be found
; here:  https://csi.t6.fyi/
; Note - This script will only work in Cura V4.2 and above!
; --- Global Settings
; layer_height = 0.2
; machine_nozzle_size = 0.4
; smooth_spiralized_contours = True
; magic_mesh_surface_mode = normal
; machine_extruder_count = 1
; --- Single Extruder Settings
; speed_z_hop = 5
; retraction_amount = 6
; retraction_hop = 0.4
; retraction_hop_enabled = True
; retraction_enable = True
; retraction_speed = 45
; retraction_retract_speed = 45
; retraction_prime_speed = 45
; speed_travel = 200.0

;Setup temperatures
M140 S55 ;Set a new target heated bed temperature and continue without waiting. Use M190 to wait for the bed to reach the target temperature
M105 ;report temperature

;Move Z up and home
G1 Z15.0 F3000 ;Move Z Axis up
G28 X Y ; Home the X and Y axes

;Wait for Bed Temperature
M190 S55

G28 ; Home
G29 ; ABL

M104 S210 ; Heat me up baby

G1 Z15.0 F3000 ; Move Z Axis up
G28 X Y ; Home the X and Y axes ; Wait with printhead at x y home

M109 S210 ; Heat me up baby

; Prime Time
G1 X5 Y10 Z0.2 F3000 ; get ready to prime
G92 E0 ; reset extrusion distance
G1 X160 E15 F600 ; prime nozzle
G1 X180 F5000 ; quick wipe

M201 X500.00 Y500.00 Z100.00 E5000.00 ;Setup machine max acceleration
M203 X500.00 Y500.00 Z10.00 E50.00 ;Setup machine max feedrate
M204 P500.00 R1000.00 T500.00 ;Setup Print/Retract/Travel acceleration
M205 X8.00 Y8.00 Z0.40 E5.00 ;Setup Jerk
M220 S100 ;Reset Feedrate
M221 S100 ;Reset Flowrate

G92 E0 ;Reset Extruder
G1 Z2.0 F3000 ;Move Z Axis up
G92 E0
G92 E0
G1 F2700 E-6
;LAYER_COUNT:62
;LAYER:0
M107
M204 S500
M205 X8 Y8
G1 F300 Z0.6
G0 F6000 X93.667 Y93.719 Z0.6
;TYPE:SKIRT
G1 F300 Z0.2
G1 F2700 E0
G3 X105.509 Y89.001 I11.389 J11.367 E0.43585 F1200
G3 X115.189 Y89.010 I4.465 J403.212 E0.75781
G3 X131.000 Y105.534 I-0.202 J16.020 E1.60467
G1 X130.999 Y114.563 E1.90498
G3 X114.428 Y131.000 I-16.041 J0.400 E2.77392
G1 X105.439 Y130.999 E3.0729
G3 X89.000 Y114.429 I-0.403 J-16.040 E3.94188
G1 X89.001 Y105.393 E4.24242
G3 X93.667 Y93.719 I16.078 J-0.343 E4.67196
G0 F6000 X93.953 Y93.999
G3 X105.509 Y89.401 I11.105 J11.089 E5.09722 F1200
G3 X115.184 Y89.410 I4.465 J400.630 E5.41901
G3 X130.600 Y105.534 I-0.198 J15.621 E6.24514
G1 X130.599 Y114.558 E6.54528
G3 X114.428 Y130.600 I-15.641 J0.405 E7.39350
G1 X105.444 Y130.599 E7.69231
G3 X89.400 Y114.429 I-0.409 J-15.639 E8.54056
G1 X89.401 Y105.399 E8.8409
G3 X93.953 Y93.999 I15.679 J-0.348 E9.26033
G0 F6000 X94.238 Y94.28
G3 X105.509 Y89.801 I10.819 J10.803 E9.67505 F1200
G3 X115.179 Y89.810 I4.465 J398.050 E9.99668
G3 X130.200 Y105.534 I-0.192 J15.220 E10.80207
G1 X130.199 Y114.553 E11.10205
G3 X114.428 Y130.200 I-15.242 J0.409 E11.92954
G1 X105.449 Y130.199 E12.22818
G3 X89.800 Y114.429 I-0.411 J-15.242 E13.05569
G1 X89.801 Y105.404 E13.35587
G3 X94.238 Y94.280 I15.281 J-0.352 E13.76511
G1 F2700 E7.76511
G1 F300 Z0.6
;MESH:Cabel_Holder.stl
G0 F6000 X104.572 Y119.379 Z0.6
;TYPE:WALL-INNER
G1 F300 Z0.2
G1 F2700 E13.76511
G3 X100.600 Y114.980 I0.431 J-4.382 E13.98127 F1200
G1 X100.6 Y105.024 E14.31241
G3 X105.000 Y100.601 I4.398 J-0.025 E14.54296
G1 X114.976 Y100.6 E14.87476
G3 X119.400 Y105.020 I0.025 J4.399 E15.10597
G1 X119.4 Y114.976 E15.43711
G3 X114.975 Y119.400 I-4.399 J0.025 E15.66849
G1 X105.024 Y119.4 E15.99946
G1 X104.572 Y119.379 E16.01451
G0 F6000 X104.534 Y119.778
;TYPE:WALL-OUTER
G3 X100.200 Y115.000 I0.468 J-4.779 E16.24967 F1200
G1 X100.2 Y105.005 E16.5821
G3 X104.980 Y100.201 I4.797 J-0.007 E16.83228
G1 X114.995 Y100.2 E17.16538
G3 X119.800 Y105.000 I0.006 J4.799 E17.41622
G1 X119.8 Y114.995 E17.74865
G3 X114.995 Y119.800 I-4.799 J0.006 E17.99966
G1 X105.005 Y119.8 E18.33193
G1 X104.534 Y119.778 E18.34761
G0 F6000 X104.576 Y119.341
G0 X104.609 Y118.99
;TYPE:SKIN
G3 X100.990 Y114.970 I0.391 J-3.991 E18.54495 F1200
G1 X100.99 Y105.042 E18.87516
G3 X105.019 Y100.991 I4.007 J-0.044 E19.08654
G1 X114.958 Y100.99 E19.41711
G3 X119.010 Y105.030 I0.042 J4.010 E19.62887
G1 X119.01 Y114.958 E19.95907
G3 X114.956 Y119.010 I-4.009 J0.043 E20.17129
G1 X105.042 Y119.01 E20.50103
G1 X104.609 Y118.99 E20.51545
G0 F6000 X101.703 Y116.977
G1 F1200 X103.016 Y118.29 E20.57721
G0 F6000 X104.005 Y118.713
G1 F1200 X101.284 Y115.992 E20.70519
G0 F6000 X101.167 Y115.309
G1 F1200 X104.689 Y118.832 E20.87088
G0 F6000 X105.272 Y118.849
G1 F1200 X101.15 Y114.726 E21.06479
G0 F6000 X101.15 Y114.16
G1 F1200 X105.838 Y118.849 E21.28532
G0 F6000 X106.404 Y118.849
G1 F1200 X101.15 Y113.595 E21.53246
G0 F6000 X101.15 Y113.029
G1 F1200 X106.969 Y118.849 E21.80619
G0 F6000 X107.535 Y118.849
G1 F1200 X101.15 Y112.463 E22.10654
G0 F6000 X101.15 Y111.898
G1 F1200 X108.101 Y118.849 E22.4335
G0 F6000 X108.666 Y118.849
G1 F1200 X101.15 Y111.332 E22.78705
G0 F6000 X101.15 Y110.766
G1 F1200 X109.232 Y118.849 E23.16723
G0 F6000 X109.798 Y118.849
G1 F1200 X101.15 Y110.201 E23.574
G0 F6000 X101.15 Y109.635
G1 F1200 X110.363 Y118.849 E24.00738
G0 F6000 X110.929 Y118.849
G1 F1200 X101.15 Y109.069 E24.46737
G0 F6000 X101.15 Y108.504
G1 F1200 X111.495 Y118.849 E24.95397
G0 F6000 X112.06 Y118.849
G1 F1200 X101.15 Y107.938 E25.46717
G0 F6000 X101.15 Y107.372
G1 F1200 X112.626 Y118.849 E26.00699
G0 F6000 X113.192 Y118.849
G1 F1200 X101.15 Y106.807 E26.5734
G0 F6000 X101.15 Y106.241
G1 F1200 X113.757 Y118.849 E27.16642
G0 F6000 X114.323 Y118.849
G1 F1200 X101.15 Y105.675 E27.78606
G0 F6000 X101.15 Y105.11
G1 F1200 X114.889 Y118.849 E28.4323
G0 F6000 X115.425 Y118.82
G1 F1200 X101.177 Y104.571 E29.10251
G0 F6000 X101.263 Y104.091
G1 F1200 X115.906 Y118.735 E29.7913
G0 F6000 X116.339 Y118.602
G1 F1200 X101.396 Y103.659 E30.49417
G0 F6000 X101.568 Y103.265
G1 F1200 X116.733 Y118.43 E31.20748
G0 F6000 X117.093 Y118.224
G1 F1200 X101.774 Y102.905 E31.92804
G0 F6000 X102.011 Y102.577
G1 F1200 X117.421 Y117.987 E32.65288
G0 F6000 X117.721 Y117.721
G1 F1200 X102.277 Y102.277 E33.37932
G0 F6000 X102.577 Y102.012
G1 F1200 X117.988 Y117.422 E34.10418
G0 F6000 X118.224 Y117.093
G1 F1200 X102.905 Y101.774 E34.82474
G0 F6000 X103.265 Y101.568
G1 F1200 X118.43 Y116.733 E35.53806
G0 F6000 X118.603 Y116.34
G1 F1200 X103.659 Y101.396 E36.24098
G0 F6000 X104.091 Y101.263
G1 F1200 X118.735 Y115.906 E36.92976
G0 F6000 X118.822 Y115.428
G1 F1200 X104.573 Y101.179 E37.59999
G0 F6000 X105.11 Y101.15
G1 F1200 X118.849 Y114.889 E38.24623
G0 F6000 X118.849 Y114.323
G1 F1200 X105.676 Y101.15 E38.86585
G0 F6000 X106.242 Y101.15
G1 F1200 X118.849 Y113.757 E39.45884
G0 F6000 X118.849 Y113.192
G1 F1200 X106.807 Y101.15 E40.02526
G0 F6000 X107.373 Y101.15
G1 F1200 X118.849 Y112.626 E40.56506
G0 F6000 X118.849 Y112.06
G1 F1200 X107.939 Y101.15 E41.07823
G0 F6000 X108.504 Y101.15
G1 F1200 X118.849 Y111.495 E41.56483
G0 F6000 X118.849 Y110.929
G1 F1200 X109.07 Y101.15 E42.0248
G0 F6000 X109.636 Y101.15
G1 F1200 X118.849 Y110.363 E42.45815
G0 F6000 X118.849 Y109.798
G1 F1200 X110.201 Y101.15 E42.86493
G0 F6000 X110.766 Y101.15
G1 F1200 X118.849 Y109.232 E43.24511
G0 F6000 X118.849 Y108.666
G1 F1200 X111.332 Y101.15 E43.59866
G0 F6000 X111.898 Y101.15
G1 F1200 X118.849 Y108.101 E43.92561
G0 F6000 X118.849 Y107.535
G1 F1200 X112.463 Y101.15 E44.22597
G0 F6000 X113.029 Y101.15
G1 F1200 X118.849 Y106.969 E44.4997
G0 F6000 X118.849 Y106.404
G1 F1200 X113.595 Y101.15 E44.74683
G0 F6000 X114.16 Y101.15
G1 F1200 X118.849 Y105.838 E44.96736
G0 F6000 X118.849 Y105.272
G1 F1200 X114.726 Y101.15 E45.16127
G0 F6000 X115.309 Y101.167
G1 F1200 X118.831 Y104.689 E45.32694
G0 F6000 X118.712 Y104.004
G1 F1200 X115.993 Y101.285 E45.45483
G0 F6000 X116.98 Y101.707
M104 S210
G1 F1200 X118.294 Y103.02 E45.51661
;MESH:NONMESH
G0 F300 X118.294 Y103.02 Z0.4
G0 F6000 X104.581 Y119.28
G0 X104.572 Y119.379
;TIME_ELAPSED:78.571518
;LAYER:1
M106 S127.5
;TYPE:WALL-INNER
;MESH:Cabel_Holder.stl
G3 X100.600 Y114.980 I0.431 J-4.382 E45.73277 F1800
G1 X100.6 Y105.024 E46.06391
G3 X105.025 Y100.600 I4.399 J-0.025 E46.29529
G1 X114.976 Y100.6 E46.62626
G3 X119.400 Y105.020 I0.025 J4.399 E46.85748
G1 X119.4 Y114.976 E47.18862
G3 X114.975 Y119.400 I-4.399 J0.025 E47.41999
G1 X105.024 Y119.4 E47.75096
G1 X104.572 Y119.379 E47.76601
G0 F9000 X104.534 Y119.778
;TYPE:WALL-OUTER
G3 X100.200 Y115.000 I0.468 J-4.779 E48.00117 F1800
G1 X100.2 Y105.005 E48.33361
G3 X105.005 Y100.200 I4.799 J-0.006 E48.58461
G1 X114.995 Y100.2 E48.91688
G3 X119.800 Y105.000 I0.006 J4.799 E49.16772
G1 X119.8 Y114.995 E49.50015
G3 X114.995 Y119.800 I-4.799 J0.006 E49.75116
G1 X105.005 Y119.8 E50.08343
G1 X104.534 Y119.778 E50.09911
G0 F9000 X104.576 Y119.341
G0 X104.609 Y118.99
;TYPE:SKIN
G3 X100.990 Y114.970 I0.391 J-3.991 E50.29646 F1800
G1 X100.99 Y105.042 E50.62666
G3 X105.044 Y100.990 I4.009 J-0.043 E50.83888
G1 X114.958 Y100.99 E51.16862
G3 X119.010 Y105.030 I0.042 J4.010 E51.38037
G1 X119.01 Y114.958 E51.71058
G3 X114.956 Y119.010 I-4.009 J0.043 E51.92279
G1 X105.042 Y119.01 E52.25253
G1 X104.609 Y118.99 E52.26695
G0 F9000 X117.109 Y118.215
G1 F1800 X118.212 Y117.112 E52.31883
G0 F9000 X118.696 Y116.063
G1 F1800 X116.06 Y118.698 E52.4428
G0 F9000 X115.365 Y118.828
G1 F1800 X118.83 Y115.363 E52.60578
G0 F9000 X118.849 Y114.778
G1 F1800 X114.778 Y118.849 E52.79727
G0 F9000 X114.212 Y118.849
G1 F1800 X118.849 Y114.213 E53.01536
G0 F9000 X118.849 Y113.647
G1 F1800 X113.646 Y118.849 E53.26007
G0 F9000 X113.081 Y118.849
G1 F1800 X118.849 Y113.081 E53.53138
G0 F9000 X118.849 Y112.516
G1 F1800 X112.515 Y118.849 E53.82928
G0 F9000 X111.949 Y118.849
G1 F1800 X118.849 Y111.95 E54.15381
G0 F9000 X118.849 Y111.384
G1 F1800 X111.384 Y118.849 E54.50495
G0 F9000 X110.818 Y118.849
G1 F1800 X118.849 Y110.819 E54.88268
G0 F9000 X118.849 Y110.253
G1 F1800 X110.252 Y118.849 E55.28703
G0 F9000 X109.687 Y118.849
G1 F1800 X118.849 Y109.687 E55.71798
G0 F9000 X118.849 Y109.122
G1 F1800 X109.121 Y118.849 E56.17553
G0 F9000 X108.555 Y118.849
G1 F1800 X118.849 Y108.556 E56.65971
G0 F9000 X118.849 Y107.99
G1 F1800 X107.99 Y118.849 E57.17048
G0 F9000 X107.424 Y118.849
G1 F1800 X118.849 Y107.425 E57.70786
G0 F9000 X118.849 Y106.859
G1 F1800 X106.858 Y118.849 E58.27185
G0 F9000 X106.292 Y118.849
G1 F1800 X118.849 Y106.293 E58.86247
G0 F9000 X118.849 Y105.728
G1 F1800 X105.727 Y118.849 E59.47967
G0 F9000 X105.161 Y118.849
G1 F1800 X118.849 Y105.162 E60.12348
G0 F9000 X118.827 Y104.618
G1 F1800 X104.617 Y118.828 E60.79188
G0 F9000 X104.134 Y118.745
G1 F1800 X118.744 Y104.135 E61.47909
G0 F9000 X118.616 Y103.697
G1 F1800 X103.697 Y118.616 E62.18083
G0 F9000 X103.301 Y118.447
G1 F1800 X118.446 Y103.302 E62.89321
G0 F9000 X118.244 Y102.938
G1 F1800 X102.939 Y118.243 E63.61311
G0 F9000 X102.606 Y118.01
G1 F1800 X118.009 Y102.608 E64.33759
G0 F9000 X117.745 Y102.306
G1 F1800 X102.305 Y117.746 E65.06384
G0 F9000 X102.034 Y117.451
G1 F1800 X117.451 Y102.034 E65.78901
G0 F9000 X117.126 Y101.793
G1 F1800 X101.793 Y117.126 E66.51023
G0 F9000 X101.585 Y116.768
G1 F1800 X116.768 Y101.585 E67.22439
G0 F9000 X116.378 Y101.41
G1 F1800 X101.41 Y116.378 E67.92844
G0 F9000 X101.274 Y115.948
G1 F1800 X115.949 Y101.273 E68.61871
G0 F9000 X115.473 Y101.184
G1 F1800 X101.184 Y115.472 E69.29079
G0 F9000 X101.15 Y114.941
G1 F1800 X114.942 Y101.149 E69.93953
G0 F9000 X114.376 Y101.149
G1 F1800 X101.15 Y114.375 E70.56164
G0 F9000 X101.15 Y113.81
G1 F1800 X113.81 Y101.149 E71.15715
G0 F9000 X113.245 Y101.149
G1 F1800 X101.15 Y113.244 E71.72606
G0 F9000 X101.15 Y112.678
G1 F1800 X112.679 Y101.149 E72.26835
G0 F9000 X112.113 Y101.149
G1 F1800 X101.15 Y112.113 E72.78404
G0 F9000 X101.15 Y111.547
G1 F1800 X111.548 Y101.149 E73.27313
G0 F9000 X110.982 Y101.149
G1 F1800 X101.15 Y110.981 E73.7356
G0 F9000 X101.15 Y110.416
G1 F1800 X110.416 Y101.149 E74.17146
G0 F9000 X109.851 Y101.149
G1 F1800 X101.15 Y109.85 E74.58073
G0 F9000 X101.15 Y109.284
G1 F1800 X109.285 Y101.149 E74.96338
G0 F9000 X108.719 Y101.149
G1 F1800 X101.15 Y108.719 E75.31942
G0 F9000 X101.15 Y108.153
G1 F1800 X108.154 Y101.149 E75.64887
G0 F9000 X107.588 Y101.149
G1 F1800 X101.15 Y107.587 E75.95169
G0 F9000 X101.15 Y107.022
G1 F1800 X107.022 Y101.149 E76.22792
G0 F9000 X106.457 Y101.149
G1 F1800 X101.15 Y106.456 E76.47754
G0 F9000 X101.15 Y105.89
G1 F1800 X105.891 Y101.149 E76.70055
G0 F9000 X105.325 Y101.149
G1 F1800 X101.15 Y105.324 E76.89693
G0 F9000 X101.164 Y104.745
G1 F1800 X104.743 Y101.165 E77.06529
G0 F9000 X104.077 Y101.266
G1 F1800 X101.267 Y104.076 E77.19747
G0 F9000 X101.628 Y103.149
G1 F1800 X103.15 Y101.627 E77.26906
;MESH:NONMESH
G0 F300 X103.15 Y101.627 Z0.6
G0 F9000 X104.581 Y119.28
G0 X104.572 Y119.379
;TIME_ELAPSED:116.499124
;LAYER:2
M106 S255
;TYPE:WALL-INNER
;MESH:Cabel_Holder.stl
G3 X100.600 Y114.980 I0.431 J-4.382 E77.48522 F2400
G1 X100.6 Y105.024 E77.81636
G3 X105.025 Y100.600 I4.399 J-0.025 E78.04774
G1 X114.976 Y100.6 E78.37871
G3 X119.400 Y105.020 I0.025 J4.399 E78.60992
G1 X119.4 Y114.976 E78.94106
G3 X114.975 Y119.400 I-4.399 J0.025 E79.17244
G1 X105.024 Y119.4 E79.50341
G1 X104.572 Y119.379 E79.51846
G0 F12000 X104.534 Y119.778
;TYPE:WALL-OUTER
G3 X100.200 Y115.000 I0.468 J-4.779 E79.75362 F2400
G1 X100.2 Y105.005 E80.08605
G3 X105.005 Y100.200 I4.799 J-0.006 E80.33706
G1 X114.995 Y100.2 E80.66933
G3 X119.800 Y105.000 I0.006 J4.799 E80.92016
G1 X119.8 Y114.995 E81.2526
G3 X114.995 Y119.800 I-4.799 J0.006 E81.50361
G1 X105.005 Y119.8 E81.83587
G1 X104.534 Y119.778 E81.85156
G0 F12000 X104.576 Y119.341
G0 X104.609 Y118.99
;TYPE:SKIN
G3 X100.990 Y114.970 I0.391 J-3.991 E82.04890 F2400
G1 X100.99 Y105.042 E82.37911
G3 X105.044 Y100.990 I4.009 J-0.043 E82.59132
G1 X114.958 Y100.99 E82.92106
G3 X119.010 Y105.030 I0.042 J4.010 E83.13281
G1 X119.01 Y114.958 E83.46302
G3 X114.956 Y119.010 I-4.009 J0.043 E83.67524
G1 X105.042 Y119.01 E84.00498
G1 X104.609 Y118.99 E84.0194
G0 F12000 X101.703 Y116.977
G1 F2400 X103.016 Y118.29 E84.08116
G0 F12000 X104.005 Y118.713
G1 F2400 X101.284 Y115.992 E84.20914
G0 F12000 X101.167 Y115.309
G1 F2400 X104.689 Y118.832 E84.37483
G0 F12000 X105.272 Y118.849
G1 F2400 X101.15 Y114.726 E84.56874
G0 F12000 X101.15 Y114.16
G1 F2400 X105.838 Y118.849 E84.78927
G0 F12000 X106.404 Y118.849
G1 F2400 X101.15 Y113.595 E85.03641
G0 F12000 X101.15 Y113.029
G1 F2400 X106.969 Y118.849 E85.31014
G0 F12000 X107.535 Y118.849
G1 F2400 X101.15 Y112.463 E85.61049
G0 F12000 X101.15 Y111.898
G1 F2400 X108.101 Y118.849 E85.93745
G0 F12000 X108.666 Y118.849
G1 F2400 X101.15 Y111.332 E86.291
G0 F12000 X101.15 Y110.766
G1 F2400 X109.232 Y118.849 E86.67117
G0 F12000 X109.798 Y118.849
G1 F2400 X101.15 Y110.201 E87.07795
G0 F12000 X101.15 Y109.635
G1 F2400 X110.363 Y118.849 E87.51132
G0 F12000 X110.929 Y118.849
G1 F2400 X101.15 Y109.069 E87.97132
G0 F12000 X101.15 Y108.504
G1 F2400 X111.495 Y118.849 E88.45792
G0 F12000 X112.06 Y118.849
G1 F2400 X101.15 Y107.938 E88.97112
G0 F12000 X101.15 Y107.372
G1 F2400 X112.626 Y118.849 E89.51094
G0 F12000 X113.192 Y118.849
G1 F2400 X101.15 Y106.807 E90.07735
G0 F12000 X101.15 Y106.241
G1 F2400 X113.757 Y118.849 E90.67037
G0 F12000 X114.323 Y118.849
G1 F2400 X101.15 Y105.675 E91.29001
G0 F12000 X101.15 Y105.11
G1 F2400 X114.889 Y118.849 E91.93625
G0 F12000 X115.425 Y118.82
G1 F2400 X101.177 Y104.571 E92.60646
G0 F12000 X101.263 Y104.091
G1 F2400 X115.906 Y118.735 E93.29524
G0 F12000 X116.339 Y118.602
G1 F2400 X101.396 Y103.659 E93.99812
G0 F12000 X101.568 Y103.265
G1 F2400 X116.733 Y118.43 E94.71143
G0 F12000 X117.093 Y118.224
G1 F2400 X101.774 Y102.905 E95.43199
G0 F12000 X102.011 Y102.577
G1 F2400 X117.421 Y117.987 E96.15683
G0 F12000 X117.721 Y117.721
G1 F2400 X102.277 Y102.277 E96.88327
