;FLAVOR:Marlin
;TIME:938
;Filament used: 0.461807m
;Layer height: 0.2
;MINX:89
;MINY:89
;MINZ:0.2
;MAXX:131
;MAXY:131
;MAXZ:12.4
;Generated with Cura_SteamEngine master
M140 S50
M105
M190 S50
M104 S200
M105
M109 S200
M82 ;absolute extrusion mode
M201 X500.00 Y500.00 Z100.00 E5000.00 ;Setup machine max acceleration
M203 X500.00 Y500.00 Z10.00 E50.00 ;Setup machine max feedrate
M204 P500.00 R1000.00 T500.00 ;Setup Print/Retract/Travel acceleration
M205 X8.00 Y8.00 Z0.40 E5.00 ;Setup Jerk
M220 S100 ;Reset Feedrate
M221 S100 ;Reset Flowrate

G28 ;Home

G92 E0 ;Reset Extruder
G1 Z2.0 F3000 ;Move Z Axis up
G1 X10.1 Y20 Z0.28 F5000.0 ;Move to start position
G1 X10.1 Y200.0 Z0.28 F1500.0 E15 ;Draw the first line
G1 X10.4 Y200.0 Z0.28 F5000.0 ;Move to side a little
G1 X10.4 Y20 Z0.28 F1500.0 E30 ;Draw the second line
G92 E0 ;Reset Extruder
G1 Z2.0 F3000 ;Move Z Axis up

G92 E0
G92 E0
G1 F2700 E-5
;LAYER_COUNT:62
;LAYER:0
M107
G0 F6000 X93.667 Y93.719 Z0.2
;TYPE:SKIRT
G1 F2700 E0
G1 F1200 X94.047 Y93.35 E0.01762
G1 X94.22 Y93.19 E0.02545
G1 X94.643 Y92.819 E0.04417
G1 X94.86 Y92.638 E0.05357
G1 X95.253 Y92.325 E0.07028
G1 X95.436 Y92.186 E0.07792
G1 X95.859 Y91.88 E0.09529
G1 X96.07 Y91.735 E0.1038
G1 X96.558 Y91.419 E0.12314
G1 X96.741 Y91.307 E0.13027
G1 X97.187 Y91.048 E0.14743
G1 X97.42 Y90.92 E0.15627
G1 X97.912 Y90.665 E0.1747
G1 X98.118 Y90.565 E0.18232
G1 X98.646 Y90.326 E0.20159
G1 X98.883 Y90.226 E0.21015
G1 X99.328 Y90.05 E0.22607
G1 X99.546 Y89.969 E0.2338
G1 X100.052 Y89.794 E0.25161
G1 X100.298 Y89.716 E0.26019
G1 X100.893 Y89.546 E0.28077
G1 X101.135 Y89.484 E0.28908
G1 X101.594 Y89.377 E0.30476
G1 X101.812 Y89.331 E0.31217
G1 X102.335 Y89.234 E0.32986
G1 X102.596 Y89.192 E0.33865
G1 X103.139 Y89.118 E0.35688
G1 X103.384 Y89.091 E0.36508
G1 X103.958 Y89.043 E0.38424
G1 X104.254 Y89.026 E0.3941
G1 X104.762 Y89.009 E0.411
G1 X105.509 Y89.001 E0.43585
G1 X114.348 Y89 E0.72984
G1 X115.189 Y89.01 E0.75781
G1 X115.456 Y89.017 E0.76669
G1 X115.725 Y89.027 E0.77565
G1 X116.262 Y89.06 E0.79354
G1 X116.517 Y89.082 E0.80205
G1 X117.077 Y89.145 E0.8208
G1 X117.294 Y89.175 E0.82808
G1 X117.82 Y89.26 E0.8458
G1 X118.07 Y89.307 E0.85426
G1 X118.627 Y89.427 E0.87322
G1 X118.883 Y89.489 E0.88198
G1 X119.336 Y89.609 E0.89756
G1 X119.548 Y89.67 E0.9049
G1 X120.116 Y89.85 E0.92472
G1 X120.352 Y89.932 E0.93303
G1 X120.834 Y90.112 E0.95014
G1 X121.091 Y90.215 E0.95935
G1 X121.631 Y90.449 E0.97892
G1 X121.827 Y90.54 E0.98611
G1 X122.256 Y90.75 E1.002
G1 X122.476 Y90.864 E1.01024
G1 X122.99 Y91.148 E1.02977
G1 X123.189 Y91.265 E1.03745
G1 X123.643 Y91.548 E1.05524
G1 X123.878 Y91.702 E1.06459
G1 X124.297 Y91.99 E1.0815
G1 X124.467 Y92.113 E1.08848
G1 X124.869 Y92.418 E1.10526
G1 X125.06 Y92.57 E1.11338
G1 X125.51 Y92.949 E1.13295
G1 X125.705 Y93.122 E1.14162
G1 X126.113 Y93.502 E1.16016
G1 X126.282 Y93.668 E1.16804
G1 X126.65 Y94.047 E1.18561
G1 X126.81 Y94.22 E1.19345
G1 X127.181 Y94.643 E1.21216
G1 X127.362 Y94.86 E1.22156
G1 X127.692 Y95.275 E1.23919
G1 X127.828 Y95.455 E1.2467
G1 X128.138 Y95.887 E1.26438
G1 X128.284 Y96.101 E1.273
G1 X128.534 Y96.484 E1.28821
G1 X128.648 Y96.667 E1.29538
G1 X128.952 Y97.187 E1.31542
G1 X129.08 Y97.42 E1.32426
G1 X129.325 Y97.893 E1.34198
G1 X129.425 Y98.098 E1.34956
G1 X129.676 Y98.65 E1.36973
G1 X129.775 Y98.885 E1.37821
G1 X129.951 Y99.329 E1.3941
G1 X130.033 Y99.55 E1.40194
G1 X130.202 Y100.04 E1.41918
G1 X130.28 Y100.285 E1.42773
G1 X130.457 Y100.903 E1.44911
G1 X130.519 Y101.146 E1.45745
G1 X130.623 Y101.594 E1.47275
G1 X130.669 Y101.812 E1.48016
G1 X130.765 Y102.329 E1.49765
G1 X130.807 Y102.589 E1.50641
G1 X130.882 Y103.138 E1.52484
G1 X130.909 Y103.383 E1.53304
G1 X130.957 Y103.967 E1.55252
G1 X130.973 Y104.25 E1.56195
G1 X130.99 Y104.722 E1.57766
G1 X131 Y105.534 E1.60467
G1 X130.999 Y114.563 E1.90498
G1 X130.992 Y115.135 E1.924
G1 X130.985 Y115.417 E1.93339
G1 X130.973 Y115.733 E1.9439
G1 X130.941 Y116.255 E1.9613
G1 X130.92 Y116.5 E1.96948
G1 X130.858 Y117.056 E1.98808
G1 X130.827 Y117.282 E1.99567
G1 X130.744 Y117.796 E2.01299
G1 X130.697 Y118.049 E2.02155
G1 X130.568 Y118.648 E2.04193
G1 X130.506 Y118.902 E2.05062
G1 X130.391 Y119.336 E2.06555
G1 X130.33 Y119.548 E2.07289
G1 X130.154 Y120.103 E2.09226
G1 X130.072 Y120.34 E2.1006
G1 X129.876 Y120.865 E2.11924
G1 X129.779 Y121.105 E2.12785
G1 X129.583 Y121.56 E2.14432
G1 X129.486 Y121.772 E2.15208
G1 X129.241 Y122.273 E2.17063
G1 X129.126 Y122.494 E2.17891
G1 X128.859 Y122.976 E2.19724
G1 X128.743 Y123.174 E2.20487
G1 X128.452 Y123.643 E2.22323
G1 X128.298 Y123.878 E2.23258
G1 X128.007 Y124.301 E2.24965
G1 X127.881 Y124.475 E2.2568
G1 X127.575 Y124.878 E2.27363
G1 X127.426 Y125.065 E2.28158
G1 X127.049 Y125.513 E2.30106
G1 X126.875 Y125.709 E2.30977
G1 X126.498 Y126.112 E2.32813
G1 X126.336 Y126.277 E2.33582
G1 X125.961 Y126.642 E2.35322
G1 X125.785 Y126.805 E2.3612
G1 X125.357 Y127.181 E2.38015
G1 X125.14 Y127.362 E2.38955
G1 X124.756 Y127.668 E2.40588
G1 X124.576 Y127.805 E2.4134
G1 X124.142 Y128.119 E2.43122
G1 X123.928 Y128.266 E2.43986
G1 X123.442 Y128.581 E2.45912
G1 X123.259 Y128.693 E2.46625
G1 X122.813 Y128.952 E2.48341
G1 X122.58 Y129.08 E2.49225
G1 X122.088 Y129.335 E2.51068
G1 X121.882 Y129.435 E2.5183
G1 X121.354 Y129.674 E2.53757
G1 X121.117 Y129.774 E2.54613
G1 X120.672 Y129.95 E2.56205
G1 X120.454 Y130.031 E2.56978
G1 X119.948 Y130.206 E2.58759
G1 X119.702 Y130.284 E2.59617
G1 X119.107 Y130.454 E2.61675
G1 X118.865 Y130.516 E2.62506
G1 X118.406 Y130.623 E2.64074
G1 X118.188 Y130.669 E2.64815
G1 X117.665 Y130.766 E2.66584
G1 X117.404 Y130.808 E2.67463
G1 X116.861 Y130.882 E2.69286
G1 X116.616 Y130.909 E2.70106
G1 X116.034 Y130.957 E2.72048
G1 X115.752 Y130.973 E2.72988
G1 X115.27 Y130.99 E2.74592
G1 X114.428 Y131 E2.77392
G1 X105.439 Y130.999 E3.0729
G1 X104.858 Y130.992 E3.09223
G1 X104.561 Y130.985 E3.10211
G1 X104.254 Y130.973 E3.11232
G1 X103.738 Y130.94 E3.12952
G1 X103.483 Y130.918 E3.13804
G1 X102.916 Y130.854 E3.15701
G1 X102.7 Y130.824 E3.16427
G1 X102.204 Y130.744 E3.18098
G1 X101.951 Y130.697 E3.18954
G1 X101.352 Y130.568 E3.20992
G1 X101.098 Y130.506 E3.21861
G1 X100.664 Y130.391 E3.23354
G1 X100.452 Y130.33 E3.24088
G1 X99.884 Y130.15 E3.2607
G1 X99.648 Y130.068 E3.26901
G1 X99.166 Y129.888 E3.28612
G1 X98.909 Y129.785 E3.29533
G1 X98.369 Y129.551 E3.3149
G1 X98.173 Y129.46 E3.32209
G1 X97.745 Y129.25 E3.33795
G1 X97.523 Y129.135 E3.34626
G1 X97.002 Y128.847 E3.36606
G1 X96.805 Y128.731 E3.37367
G1 X96.357 Y128.452 E3.39122
G1 X96.122 Y128.298 E3.40057
G1 X95.69 Y128.001 E3.418
G1 X95.515 Y127.874 E3.42519
G1 X95.121 Y127.574 E3.44167
G1 X94.934 Y127.425 E3.44962
G1 X94.489 Y127.05 E3.46897
G1 X94.294 Y126.877 E3.47764
G1 X93.886 Y126.497 E3.49619
G1 X93.718 Y126.332 E3.50402
G1 X93.35 Y125.953 E3.52159
G1 X93.19 Y125.78 E3.52943
G1 X92.819 Y125.357 E3.54814
G1 X92.638 Y125.14 E3.55754
G1 X92.308 Y124.725 E3.57517
G1 X92.172 Y124.545 E3.58268
G1 X91.867 Y124.12 E3.60008
G1 X91.716 Y123.899 E3.60898
G1 X91.455 Y123.499 E3.62487
G1 X91.345 Y123.322 E3.6318
G1 X91.039 Y122.798 E3.65198
G1 X90.912 Y122.566 E3.66078
G1 X90.657 Y122.071 E3.6793
G1 X90.555 Y121.86 E3.68709
G1 X90.319 Y121.336 E3.70621
G1 X90.216 Y121.091 E3.71504
G1 X90.046 Y120.663 E3.73036
G1 X89.969 Y120.456 E3.73771
G1 X89.789 Y119.931 E3.75617
G1 X89.712 Y119.687 E3.76468
G1 X89.551 Y119.126 E3.78409
G1 X89.487 Y118.878 E3.79261
G1 X89.368 Y118.364 E3.81016
G1 X89.324 Y118.152 E3.81736
G1 X89.234 Y117.665 E3.83383
G1 X89.192 Y117.404 E3.84262
G1 X89.118 Y116.861 E3.86085
G1 X89.091 Y116.616 E3.86905
G1 X89.043 Y116.04 E3.88827
G1 X89.026 Y115.743 E3.89817
G1 X89.009 Y115.242 E3.91484
G1 X89 Y114.429 E3.94188
G1 X89.001 Y105.393 E4.24242
G1 X89.008 Y104.849 E4.26051
G1 X89.015 Y104.561 E4.2701
G1 X89.027 Y104.254 E4.28031
G1 X89.06 Y103.738 E4.29751
G1 X89.082 Y103.483 E4.30602
G1 X89.146 Y102.916 E4.325
G1 X89.176 Y102.7 E4.33226
G1 X89.256 Y102.204 E4.34897
G1 X89.303 Y101.951 E4.35753
G1 X89.432 Y101.351 E4.37794
G1 X89.495 Y101.093 E4.38677
G1 X89.618 Y100.634 E4.40258
G1 X89.679 Y100.424 E4.40985
G1 X89.847 Y99.894 E4.42834
G1 X89.928 Y99.66 E4.43658
G1 X90.126 Y99.132 E4.45533
G1 X90.23 Y98.875 E4.46455
G1 X90.448 Y98.373 E4.48276
G1 X90.544 Y98.166 E4.49035
G1 X90.76 Y97.726 E4.50665
G1 X90.869 Y97.516 E4.51452
G1 X91.141 Y97.024 E4.53322
G1 X91.257 Y96.826 E4.54085
G1 X91.548 Y96.357 E4.55921
G1 X91.702 Y96.122 E4.56855
G1 X91.993 Y95.699 E4.58563
G1 X92.119 Y95.525 E4.59277
G1 X92.425 Y95.122 E4.6096
G1 X92.574 Y94.935 E4.61756
G1 X92.955 Y94.482 E4.63724
G1 X93.131 Y94.284 E4.64605
G1 X93.504 Y93.885 E4.66422
G1 X93.667 Y93.719 E4.67196
G0 F6000 X93.953 Y93.999
G1 F1200 X94.319 Y93.644 E4.68892
G1 X94.492 Y93.484 E4.69676
G1 X94.899 Y93.126 E4.71478
G1 X95.116 Y92.945 E4.72418
G1 X95.494 Y92.644 E4.74025
G1 X95.677 Y92.505 E4.7479
G1 X96.086 Y92.21 E4.76467
G1 X96.297 Y92.065 E4.77319
G1 X96.767 Y91.76 E4.79182
G1 X96.95 Y91.648 E4.79896
G1 X97.379 Y91.399 E4.81545
G1 X97.612 Y91.271 E4.8243
G1 X98.087 Y91.025 E4.84209
G1 X98.293 Y90.925 E4.8497
G1 X98.801 Y90.695 E4.86825
G1 X99.038 Y90.595 E4.87681
G1 X99.467 Y90.425 E4.89216
G1 X99.685 Y90.344 E4.89989
G1 X100.173 Y90.176 E4.91706
G1 X100.419 Y90.098 E4.92564
G1 X100.992 Y89.934 E4.94546
G1 X101.234 Y89.872 E4.95377
G1 X101.676 Y89.768 E4.96887
G1 X101.894 Y89.722 E4.97628
G1 X102.399 Y89.629 E4.99336
G1 X102.66 Y89.587 E5.00216
G1 X103.183 Y89.516 E5.01971
G1 X103.428 Y89.489 E5.02791
G1 X103.981 Y89.442 E5.04637
G1 X104.277 Y89.425 E5.05623
G1 X104.766 Y89.409 E5.0725
G1 X105.509 Y89.401 E5.09722
G1 X114.348 Y89.4 E5.3912
G1 X115.184 Y89.41 E5.41901
G1 X115.441 Y89.416 E5.42756
G1 X115.71 Y89.426 E5.43651
G1 X116.227 Y89.458 E5.45374
G1 X116.482 Y89.48 E5.46225
G1 X117.023 Y89.541 E5.48036
G1 X117.24 Y89.571 E5.48765
G1 X117.746 Y89.653 E5.5047
G1 X117.996 Y89.7 E5.51316
G1 X118.533 Y89.816 E5.53143
G1 X118.789 Y89.878 E5.54019
G1 X119.225 Y89.993 E5.55519
G1 X119.437 Y90.054 E5.56253
G1 X119.985 Y90.228 E5.58165
G1 X120.221 Y90.31 E5.58996
G1 X120.685 Y90.484 E5.60644
G1 X120.942 Y90.587 E5.61565
G1 X121.463 Y90.812 E5.63453
G1 X121.659 Y90.903 E5.64171
G1 X122.072 Y91.106 E5.65702
G1 X122.292 Y91.22 E5.66526
G1 X122.787 Y91.493 E5.68406
G1 X122.986 Y91.61 E5.69174
G1 X123.424 Y91.882 E5.70889
G1 X123.659 Y92.036 E5.71823
G1 X124.063 Y92.314 E5.73454
G1 X124.233 Y92.437 E5.74152
G1 X124.62 Y92.731 E5.75769
G1 X124.811 Y92.883 E5.76581
G1 X125.245 Y93.248 E5.78467
G1 X125.44 Y93.421 E5.79334
G1 X125.833 Y93.788 E5.81122
G1 X126.002 Y93.954 E5.8191
G1 X126.356 Y94.319 E5.83601
G1 X126.516 Y94.492 E5.84385
G1 X126.874 Y94.899 E5.86188
G1 X127.055 Y95.116 E5.87128
G1 X127.372 Y95.516 E5.88825
G1 X127.508 Y95.696 E5.89576
G1 X127.807 Y96.112 E5.9128
G1 X127.953 Y96.326 E5.92141
G1 X128.194 Y96.695 E5.93607
G1 X128.308 Y96.878 E5.94324
G1 X128.601 Y97.379 E5.96255
G1 X128.729 Y97.612 E5.97139
G1 X128.966 Y98.069 E5.98851
G1 X129.066 Y98.274 E5.9961
G1 X129.308 Y98.806 E6.01554
G1 X129.407 Y99.041 E6.02402
G1 X129.576 Y99.469 E6.03932
G1 X129.658 Y99.69 E6.04716
G1 X129.82 Y100.161 E6.06373
G1 X129.898 Y100.406 E6.07228
G1 X130.069 Y101.001 E6.09287
G1 X130.131 Y101.244 E6.10121
G1 X130.232 Y101.676 E6.11597
G1 X130.278 Y101.894 E6.12338
G1 X130.37 Y102.393 E6.14025
G1 X130.412 Y102.653 E6.14901
G1 X130.484 Y103.182 E6.16677
G1 X130.511 Y103.427 E6.17497
G1 X130.558 Y103.99 E6.19376
G1 X130.574 Y104.273 E6.20319
G1 X130.59 Y104.727 E6.2183
G1 X130.6 Y105.534 E6.24514
G1 X130.599 Y114.558 E6.54528
G1 X130.592 Y115.13 E6.56431
G1 X130.585 Y115.402 E6.57336
G1 X130.573 Y115.718 E6.58387
G1 X130.542 Y116.221 E6.60063
G1 X130.521 Y116.466 E6.60881
G1 X130.462 Y117.001 E6.62672
G1 X130.431 Y117.227 E6.6343
G1 X130.351 Y117.723 E6.65101
G1 X130.304 Y117.976 E6.65957
G1 X130.18 Y118.554 E6.67923
G1 X130.118 Y118.808 E6.68793
G1 X130.007 Y119.225 E6.70228
G1 X129.946 Y119.437 E6.70962
G1 X129.776 Y119.972 E6.72829
G1 X129.694 Y120.209 E6.73663
G1 X129.505 Y120.715 E6.7546
G1 X129.408 Y120.955 E6.76321
G1 X129.219 Y121.393 E6.77907
G1 X129.122 Y121.605 E6.78683
G1 X128.886 Y122.088 E6.80471
G1 X128.771 Y122.309 E6.81299
G1 X128.514 Y122.774 E6.83066
G1 X128.398 Y122.972 E6.8383
G1 X128.118 Y123.424 E6.85598
G1 X127.964 Y123.659 E6.86533
G1 X127.683 Y124.066 E6.88178
G1 X127.557 Y124.24 E6.88892
G1 X127.262 Y124.629 E6.90516
G1 X127.113 Y124.816 E6.91311
G1 X126.75 Y125.247 E6.93185
G1 X126.576 Y125.443 E6.94057
G1 X126.213 Y125.832 E6.95827
G1 X126.051 Y125.997 E6.96596
G1 X125.69 Y126.348 E6.9827
G1 X125.514 Y126.511 E6.99068
G1 X125.101 Y126.874 E7.00897
G1 X124.884 Y127.055 E7.01837
G1 X124.514 Y127.35 E7.03411
G1 X124.334 Y127.487 E7.04163
G1 X123.916 Y127.789 E7.05878
G1 X123.702 Y127.936 E7.06742
G1 X123.233 Y128.24 E7.08601
G1 X123.05 Y128.352 E7.09314
G1 X122.621 Y128.601 E7.10964
G1 X122.388 Y128.729 E7.11848
G1 X121.913 Y128.975 E7.13628
G1 X121.707 Y129.075 E7.14389
G1 X121.199 Y129.305 E7.16244
G1 X120.962 Y129.405 E7.17099
G1 X120.533 Y129.575 E7.18634
G1 X120.315 Y129.656 E7.19408
G1 X119.827 Y129.824 E7.21124
G1 X119.581 Y129.902 E7.21983
G1 X119.008 Y130.066 E7.23965
G1 X118.766 Y130.128 E7.24796
G1 X118.324 Y130.232 E7.26306
G1 X118.106 Y130.278 E7.27047
G1 X117.601 Y130.371 E7.28755
G1 X117.34 Y130.413 E7.29634
G1 X116.817 Y130.484 E7.3139
G1 X116.572 Y130.511 E7.3221
G1 X116.011 Y130.558 E7.34082
G1 X115.729 Y130.574 E7.35022
G1 X115.265 Y130.59 E7.36566
G1 X114.428 Y130.6 E7.3935
G1 X105.444 Y130.599 E7.69231
G1 X104.863 Y130.592 E7.71163
G1 X104.577 Y130.585 E7.72115
G1 X104.27 Y130.573 E7.73137
G1 X103.773 Y130.542 E7.74793
G1 X103.518 Y130.52 E7.75644
G1 X102.971 Y130.458 E7.77475
G1 X102.755 Y130.428 E7.782
G1 X102.277 Y130.351 E7.79811
G1 X102.024 Y130.304 E7.80667
G1 X101.446 Y130.18 E7.82633
G1 X101.192 Y130.118 E7.83502
G1 X100.775 Y130.007 E7.84938
G1 X100.563 Y129.946 E7.85671
G1 X100.015 Y129.772 E7.87584
G1 X99.779 Y129.69 E7.88415
G1 X99.315 Y129.516 E7.90063
G1 X99.058 Y129.413 E7.90984
G1 X98.537 Y129.188 E7.92871
G1 X98.341 Y129.097 E7.9359
G1 X97.929 Y128.895 E7.95116
G1 X97.707 Y128.78 E7.95948
G1 X97.205 Y128.502 E7.97856
G1 X97.008 Y128.386 E7.98617
G1 X96.576 Y128.118 E8.00308
G1 X96.341 Y127.964 E8.01242
G1 X95.925 Y127.677 E8.02923
G1 X95.75 Y127.55 E8.03642
G1 X95.37 Y127.261 E8.0523
G1 X95.183 Y127.112 E8.06025
G1 X94.754 Y126.751 E8.0789
G1 X94.559 Y126.578 E8.08757
G1 X94.166 Y126.212 E8.10543
G1 X93.998 Y126.047 E8.11327
G1 X93.644 Y125.681 E8.1302
G1 X93.484 Y125.508 E8.13804
G1 X93.126 Y125.101 E8.15607
G1 X92.945 Y124.884 E8.16547
G1 X92.628 Y124.484 E8.18244
G1 X92.492 Y124.304 E8.18995
G1 X92.197 Y123.894 E8.20674
G1 X92.046 Y123.673 E8.21565
G1 X91.795 Y123.288 E8.23093
G1 X91.685 Y123.111 E8.23786
G1 X91.39 Y122.606 E8.25732
G1 X91.263 Y122.374 E8.26611
G1 X91.018 Y121.897 E8.28395
G1 X90.916 Y121.686 E8.29174
G1 X90.687 Y121.181 E8.31019
G1 X90.584 Y120.936 E8.31903
G1 X90.421 Y120.524 E8.33376
G1 X90.344 Y120.317 E8.34111
G1 X90.17 Y119.811 E8.35891
G1 X90.093 Y119.567 E8.36742
G1 X89.938 Y119.026 E8.38613
G1 X89.874 Y118.778 E8.39465
G1 X89.759 Y118.283 E8.41155
G1 X89.715 Y118.071 E8.41876
G1 X89.629 Y117.601 E8.43465
G1 X89.587 Y117.34 E8.44344
G1 X89.516 Y116.817 E8.46099
G1 X89.489 Y116.572 E8.46919
G1 X89.442 Y116.017 E8.48772
G1 X89.425 Y115.72 E8.49761
G1 X89.409 Y115.238 E8.51365
G1 X89.4 Y114.429 E8.54056
G1 X89.401 Y105.399 E8.8409
G1 X89.408 Y104.855 E8.859
G1 X89.415 Y104.577 E8.86825
G1 X89.427 Y104.27 E8.87846
G1 X89.458 Y103.773 E8.89503
G1 X89.48 Y103.518 E8.90354
G1 X89.542 Y102.971 E8.92185
G1 X89.572 Y102.755 E8.9291
G1 X89.649 Y102.277 E8.94521
G1 X89.696 Y102.024 E8.95376
G1 X89.821 Y101.446 E8.97343
G1 X89.884 Y101.188 E8.98227
G1 X90.002 Y100.745 E8.99751
G1 X90.063 Y100.535 E9.00479
G1 X90.225 Y100.025 E9.02259
G1 X90.306 Y99.791 E9.03082
G1 X90.497 Y99.282 E9.0489
G1 X90.601 Y99.025 E9.05812
G1 X90.811 Y98.541 E9.07567
G1 X90.907 Y98.334 E9.08326
G1 X91.115 Y97.911 E9.09894
G1 X91.224 Y97.701 E9.10681
G1 X91.486 Y97.226 E9.12485
G1 X91.602 Y97.028 E9.13248
G1 X91.882 Y96.576 E9.15017
